X:1
T:Magdalena
T:Magdalena
T:Courtesy of the Cyber Hymnal (http://www.cyberhymnal.org)
T:Courtesy of the Cyber Hymnal (http://www.cyberhymnal.org)
Z:Courtesy of the Cyber Hymnal (http://www.cyberhymnal.org)
%%score { ( 1 2 ) ( 3 4 ) }
L:1/8
Q:1/4=117
M:1/4
K:E
V:1 treble nm="P1"
V:2 treble 
V:3 bass nm="P2"
V:4 bass 
V:1
"^Editor: John Henry Fowler""^( Revision: 12-2-2007 )" E2 |[M:4/4] A2 G2 F2 E2 | B4 B2 c2 | %3
 B3 E E2"^( 1868 )" F2 | G6 ^A2 | B2 e2 d2 c2 | B4 B2 d2 | %7
 c2 G2"^John Stainer""^( 1840 - 1901 )" B2 ^A2 | B6 B2 | c3 F F2 B2 | B4 E2 F2 | G2 B2 A2 G2 | %12
 F6 F2 | G2 F2 c2 B2 | e4 A2 G2 | F2 cB A2 F2 |[M:3/4] E6 |] %17
V:2
 E2 |[M:4/4] E2 D2 C2 E2 | E4 D2 E2 | E3 E C2 D2 | E6 F2 | F2 G2 =G2 D2 | D4 D2 A2 | G2 G2 F2 E2 | %8
 D6 F2 | F3 F F2 D2 | E4 C2 F2 | F2 F2 F2 ^E2 | F6 F2 | D2 D2 E2 E2 | E4 E2 D2 | C2 E2 E2 D2 | %16
[M:3/4] E6 |] %17
V:3
 G,2 |[M:4/4] A,2 B,2 C2 A,2 | F,4 B,2 A,2 | B,3 B, C2 A,2 | B,6 C2 | B,2 B,2 ^A,2 A,2 | %6
 G,4 B,2 ^B,2 | C2 E2 D2 C2 | B,6 D2 | %9
"^1.  I could not do without TheeO Savior of the lost,Whose precious blood redeemed meAt such tremendous cost.Thy righteousness, thy pardonThy precious blood, must beMy only hope and comfort,My glory and my plea.2.  I could not do without Thee,I cannot stand alone,I have no strength or goodness,No wisdom of my own;But Thou, beloved Savior,Art all in all to me,And weakness will be powerIf leaning hard on Thee.3.  I could not do without Thee,For, oh, the way is long,And I am often weary,And sigh replaces song:How could I do without Thee?I do not know the way;Thou knowest, and Thou leadest,And wilt not let me stray." E3 E D2 B,2 | %10
 B,4 C2 C2 | =D2 D2 C2 B,2 | A,6 C2 | %13
 B,2"^4.  I could not do without Thee,O Jesus, Savior dear;E’en when my eyes are holden,I know that Thou art near.How dreary and how lonelyThis changeful life would be,Without the sweet communion,The secret rest with Thee!5.  I could not do without Thee;No other friend can readThe spirit’s strange deep longings,Interpreting its need;No human heart could enterEach dim recess of mine,And soothe, and hush, and calm it,O blessèd Lord, but Thine.6.  I could not do without Thee,For years are fleeting fast,And soon in solemn onenessThe river must be passed;But Thou wilt never leave me,And though the waves roll high,I know Thou wilt be near me,And whisper, “It is I.”" B,2 B,2 G,2 | %14
 A,4 A,2 B,2 | C2 A,G, F,2 A,2 |[M:3/4] G,6 |] %17
V:4
 E,2 |[M:4/4] C,2 B,,2 A,,2 C,2 | B,,4 B,,2 A,2 | G,3 G, A,2 F,2 | E,6 E,2 | D,2 C,2 D,2 ^^F,2 | %6
 G,4 G,2 F,2 | E,2 E,2 F,2 F,2 | B,,6 B,2 | A,3 A, B,2 A,2 | G,4 A,2 A,2 | B,2 B,,2 C,2 C,2 | %12
 F,6 A,2 | A,2 A,2 G,2 =D,2 | C,4 C,2 B,,2 | A,,2 A,,2 B,,2 B,,2 |[M:3/4] E,6 |] %17

